storage/app/icons/phosphoricons/regular/book-bookmark.svg

<svg xmlns="http://www.w3.org/2000/svg" fill="currentColor" viewBox="0 0 256 256"><path d="M208 24H72a32 32 0 0 0-32 32v168a8 8 0 0 0 8 8h144a8 8 0 0 0 0-16H56a16 16 0 0 1 16-16h136a8 8 0 0 0 8-8V32a8 8 0 0 0-8-8m-88 16h48v72l-19.21-14.4a8 8 0 0 0-9.6 0L120 112Zm80 144H72a31.8 31.8 0 0 0-16 4.29V56a16 16 0 0 1 16-16h32v88a8 8 0 0 0 12.8 6.4L144 114l27.21 20.4A8 8 0 0 0 176 136a8 8 0 0 0 8-8V40h16Z"/></svg>

<svg xmlns="http://www.w3.org/2000/svg" viewBox="0 0 256 256" fill="currentColor"><path d="M208,24H72A32,32,0,0,0,40,56V224a8,8,0,0,0,8,8H192a8,8,0,0,0,0-16H56a16,16,0,0,1,16-16H208a8,8,0,0,0,8-8V32A8,8,0,0,0,208,24ZM120,40h48v72L148.79,97.6a8,8,0,0,0-9.6,0L120,112Zm80,144H72a31.82,31.82,0,0,0-16,4.29V56A16,16,0,0,1,72,40h32v88a8,8,0,0,0,12.8,6.4L144,114l27.21,20.4A8,8,0,0,0,176,136a8,8,0,0,0,8-8V40h16Z"/></svg>
